X:16
T:Try This
C:Mike Mahar
L:1/8
Q:130
M:2/2
K:D
de |: f2f2 f2gf | eddc d2ef | g2g2 g2gf | eBBA B2AB |
c2c2 c2cB | A2A2 e2AB | c2g2 f2e2 |1 f6de :|2 d6dA |
F2F2 F2EF | GFEF G2ed | c2c2 cBAG | FGFE F2dA |
F2F2 F2EF | GFEF G2ed | \
c2A2 B2c2 |
K:G
d4 c4 | B2B2 B2AB | cBAB c2ag | f2f2 fedc | BcBA B2dc | B2B2 B2AB | cBAB c2ag | f2d2 e2f2 |  g6de |]
